svgs/thin/download.svg

<svg xmlns="http://www.w3.org/2000/svg" viewBox="0 0 512 512"><!--! Font Awesome Pro 6.0.0-alpha3 by @fontawesome - https://fontawesome.com License - https://fontawesome.com/license (Commercial License) --><path d="M480 352h-88C387.6 352 384 355.6 384 360s3.582 8 8 8H480c8.822 0 16 7.178 16 16v96c0 8.822-7.178 16-16 16H32c-8.822 0-16-7.178-16-16v-96c0-8.822 7.178-16 16-16h88C124.4 368 128 364.4 128 360S124.4 352 120 352H32c-17.67 0-32 14.33-32 32v96c0 17.67 14.33 32 32 32h448c17.67 0 32-14.33 32-32v-96C512 366.3 497.7 352 480 352zM464 432c0-17.6-14.4-32-32-32s-32 14.4-32 32c0 17.6 14.4 32 32 32S464 449.6 464 432zM416 432c0-8.822 7.178-16 16-16s16 7.178 16 16S440.8 448 432 448S416 440.8 416 432zM250.3 413.7c3.125 3.125 8.188 3.125 11.31 0l152-152C415.2 260.1 416 258.1 416 256s-.7813-4.094-2.344-5.656c-3.125-3.125-8.188-3.125-11.31 0L264 388.7V8C264 3.594 260.4 0 256 0S248 3.594 248 8v380.7L109.7 250.3c-3.125-3.125-8.188-3.125-11.31 0s-3.125 8.188 0 11.31L250.3 413.7z"/></svg>

<svg xmlns="http://www.w3.org/2000/svg" viewBox="0 0 512 512"><!-- Font Awesome Pro 6.0.0-alpha2 by @fontawesome - https://fontawesome.com License - https://fontawesome.com/license (Commercial License) --><path d="M480 352H392C387.582 352 384 355.582 384 360S387.582 368 392 368H480C488.822 368 496 375.178 496 384V480C496 488.822 488.822 496 480 496H32C23.178 496 16 488.822 16 480V384C16 375.178 23.178 368 32 368H120C124.418 368 128 364.418 128 360S124.418 352 120 352H32C14.326 352 0 366.326 0 384V480C0 497.672 14.326 512 32 512H480C497.674 512 512 497.672 512 480V384C512 366.326 497.674 352 480 352ZM464 432C464 414.398 449.6 400 432 400S400 414.398 400 432C400 449.598 414.4 464 432 464S464 449.598 464 432ZM416 432C416 423.178 423.178 416 432 416S448 423.178 448 432S440.822 448 432 448S416 440.822 416 432ZM250.344 413.656C253.469 416.781 258.531 416.781 261.656 413.656L413.656 261.656C415.219 260.094 416 258.062 416 256S415.219 251.906 413.656 250.344C410.531 247.219 405.469 247.219 402.344 250.344L264 388.688V8C264 3.594 260.422 0 256 0S248 3.594 248 8V388.688L109.656 250.344C106.531 247.219 101.469 247.219 98.344 250.344S95.219 258.531 98.344 261.656L250.344 413.656Z"/></svg>
